X: 9
T: Old Copperplate, The
Z: Sean Perry
S: https://thesession.org/tunes/410#setting50893
R: reel
M: 4/4
L: 1/8
K: Ador
|:A2EA cA A/A/A|aged cAFA|G2DG BGBd|gedc BdcB|
A2EA cA A/A/A|aged cBAG|ABcd ef g/f/e|aged cAA2:|
|:ageg a2eg|aged cA~A2|gfef g2ef|gedc BAG2|
ageg a2eg|aged cBAG|ABcd ef g/f/e|aged cAA2:|

